img/levels/icon1.svg

<svg width="100" height="100" viewBox="0 0 100 100" fill="none" xmlns="http://www.w3.org/2000/svg">
<g clip-path="url(#clip0_206_34745)">
<path opacity="0.8" d="M100.421 50.0687C100.421 56.563 99.1579 63.0573 96.7368 69.1326C94.2105 75.1031 90.5263 80.6547 86 85.2635C81.3684 89.8724 75.8947 93.6432 69.7895 96.1571C63.7895 98.671 57.1579 100.033 50.6316 100.137C44 100.137 37.4737 98.9853 31.3684 96.4714C25.2631 93.9574 19.5789 90.2913 14.9473 85.6825C10.2105 81.0737 6.5263 75.4173 3.89472 69.3421C1.3684 63.2668 0 56.6678 0 50.0687C0 43.4697 1.3684 36.8707 3.89472 30.7954C6.42103 24.7201 10.2105 19.1686 14.9473 14.455C19.6842 9.84616 25.2631 6.18003 31.3684 3.66612C37.4737 1.15221 44.1052 0 50.6316 0C57.2631 0.104746 63.7895 1.36171 69.7895 3.98036C75.7895 6.49428 81.3684 10.2651 86 14.874C90.6316 19.4828 94.3158 25.0344 96.7368 31.0049C99.1579 37.0802 100.421 43.5745 100.421 50.0687ZM100.421 50.0687C100.421 43.5745 99.0526 37.0802 96.5263 31.1097C94 25.1391 90.3158 19.6923 85.6842 15.0835C81.0526 10.4746 75.4737 6.91326 69.4737 4.5041C63.4737 2.09493 56.9474 0.83798 50.5263 0.942726C44 1.04747 37.5789 2.30443 31.6842 4.81834C25.6842 7.33225 20.3158 10.9984 15.7895 15.6072C11.2632 20.1113 7.57894 25.5581 5.15789 31.5286C2.73684 37.3944 1.47368 43.8887 1.47368 50.2782C1.47368 56.6678 2.73684 63.0573 5.15789 69.0278C7.57894 74.9984 11.2632 80.3404 15.7895 84.9493C20.3158 89.4533 25.7894 93.2242 31.6842 95.7381C37.5789 98.2521 44.1053 99.6137 50.5263 99.6137C57.0526 99.6137 63.4737 98.4615 69.4737 96.0524C75.4737 93.6432 81.0526 89.9771 85.6842 85.473C90.3158 80.8642 94 75.4174 96.5263 69.4468C99.0526 63.0573 100.316 56.563 100.421 50.0687Z" fill="url(#paint0_linear_206_34745)"/>
<path d="M53.2744 46.0302C46.4675 44.3135 44.2785 42.5387 44.2785 39.7745C44.2785 36.603 47.3071 34.3917 52.3748 34.3917C57.7124 34.3917 59.6916 36.8649 59.8715 40.5019H66.4985C66.2886 35.4974 63.14 30.9002 56.8728 29.4163V23.0442H47.8769V29.329C42.0595 30.551 37.3816 34.2171 37.3816 39.8327C37.3816 46.5539 43.109 49.9 51.4752 51.8494C58.9719 53.5952 60.4712 56.1557 60.4712 58.8616C60.4712 60.8693 59.0019 64.0698 52.3748 64.0698C46.1976 64.0698 43.7687 61.393 43.4388 57.9596H36.8418C37.2016 64.3317 42.1194 67.9105 47.8769 69.1035V75.4174H56.8728V69.1617C62.7202 68.0851 67.3681 64.7973 67.3681 58.8325C67.3681 50.5692 60.0814 47.7469 53.2744 46.0302Z" fill="url(#paint1_linear_206_34745)"/>
</g>
<defs>
<linearGradient id="paint0_linear_206_34745" x1="50.2105" y1="0" x2="50.2105" y2="100.137" gradientUnits="userSpaceOnUse">
<stop stop-color="#842637"/>
<stop offset="1" stop-color="#F53E5D"/>
</linearGradient>
<linearGradient id="paint1_linear_206_34745" x1="52.105" y1="23.0442" x2="52.105" y2="75.4174" gradientUnits="userSpaceOnUse">
<stop stop-color="#842637"/>
<stop offset="1" stop-color="#F53E5D"/>
</linearGradient>
<clipPath id="clip0_206_34745">
<rect width="100" height="100" fill="white"/>
</clipPath>
</defs>
</svg>

<svg width="100" height="100" fill="none" xmlns="http://www.w3.org/2000/svg"><g clip-path="url(#clip0_206_34745)"><path opacity=".8" d="M100.421 50.069c0 6.494-1.263 12.988-3.684 19.064-2.526 5.97-6.21 11.522-10.737 16.13-4.632 4.61-10.105 8.38-16.21 10.894-6 2.514-12.632 3.876-19.158 3.98-6.632 0-13.158-1.152-19.264-3.666-6.105-2.514-11.79-6.18-16.42-10.788-4.738-4.61-8.422-10.266-11.053-16.34C1.368 63.266 0 56.667 0 50.068c0-6.6 1.368-13.198 3.895-19.274C6.42 24.72 10.21 19.17 14.947 14.455A51.897 51.897 0 0131.368 3.666C37.474 1.152 44.105 0 50.632 0c6.631.105 13.157 1.362 19.158 3.98 6 2.514 11.578 6.285 16.21 10.894a48.723 48.723 0 0110.737 16.13c2.42 6.076 3.684 12.57 3.684 19.065zm0 0c0-6.495-1.368-12.989-3.895-18.96a50.253 50.253 0 00-10.842-16.026c-4.631-4.608-10.21-8.17-16.21-10.579-6-2.41-12.527-3.666-18.948-3.561C44 1.047 37.58 2.304 31.684 4.818a48.514 48.514 0 00-15.895 10.79c-4.526 4.503-8.21 9.95-10.631 15.92-2.421 5.866-3.684 12.36-3.684 18.75 0 6.39 1.263 12.78 3.684 18.75 2.42 5.97 6.105 11.312 10.631 15.921 4.527 4.504 10 8.275 15.895 10.79 5.895 2.513 12.421 3.875 18.842 3.875 6.527 0 12.948-1.153 18.948-3.562s11.579-6.075 16.21-10.579a50.253 50.253 0 0010.842-16.026c2.527-6.39 3.79-12.884 3.895-19.378z" fill="url(#paint0_linear_206_34745)"/><path d="M53.274 46.03c-6.806-1.717-8.995-3.491-8.995-6.255 0-3.172 3.028-5.383 8.096-5.383 5.337 0 7.317 2.473 7.496 6.11H66.5c-.21-5.005-3.359-9.602-9.626-11.086v-6.372h-8.996v6.285c-5.818 1.222-10.495 4.888-10.495 10.504 0 6.72 5.727 10.067 14.093 12.016 7.497 1.746 8.996 4.307 8.996 7.013 0 2.007-1.47 5.208-8.096 5.208-6.177 0-8.606-2.677-8.936-6.11h-6.597c.36 6.372 5.277 9.95 11.035 11.143v6.314h8.996v-6.255c5.847-1.077 10.495-4.365 10.495-10.33 0-8.263-7.287-11.085-14.094-12.802z" fill="url(#paint1_linear_206_34745)"/></g><defs><linearGradient id="paint0_linear_206_34745" x1="50.211" y1="0" x2="50.211" y2="100.137" gradientUnits="userSpaceOnUse"><stop stop-color="#842637"/><stop offset="1" stop-color="#F53E5D"/></linearGradient><linearGradient id="paint1_linear_206_34745" x1="52.105" y1="23.044" x2="52.105" y2="75.417" gradientUnits="userSpaceOnUse"><stop stop-color="#842637"/><stop offset="1" stop-color="#F53E5D"/></linearGradient><clipPath id="clip0_206_34745"><path fill="#fff" d="M0 0h100v100H0z"/></clipPath></defs></svg>
